www/assets/icons/home_work.svg

<svg xmlns="http://www.w3.org/2000/svg" width="24" height="24" viewBox="0 0 24 24" fill='currentColor'><path d="M1 11v10h5v-6h4v6h5V11L8 6z"/><path d="M10 3v1.97l7 5V11h2v2h-2v2h2v2h-2v4h6V3zm9 6h-2V7h2z"/></svg>

<svg width="24" height="24" viewBox="0 0 24 24" xmlns="http://www.w3.org/2000/svg" fill='currentColor'><path d="M1 11V21H6V15H10V21H15V11L8 6L1 11Z"/><path d="M10 3V4.97L17 9.97V11H19V13H17V15H19V17H17V21H23V3H10ZM19 9H17V7H19V9Z"/></svg>
